src/assets/images/edyoda.svg

<svg width="157" height="28" viewBox="0 0 157 28" fill="none" xmlns="http://www.w3.org/2000/svg">
<path d="M20.0661 21.04V27.5H0.838119V0.519999H19.7241V6.98H8.24812V10.78H18.0521V16.784H8.24812V21.04H20.0661ZM24.6519 27.5V0.519999H35.0259C38.0153 0.519999 40.5106 1.128 42.5119 2.344C44.5386 3.53467 46.0586 5.156 47.0719 7.208C48.1106 9.23467 48.6299 11.4893 48.6299 13.972C48.6299 16.708 48.0599 19.0893 46.9199 21.116C45.8053 23.1427 44.2219 24.7133 42.1699 25.828C40.1433 26.9427 37.7619 27.5 35.0259 27.5H24.6519ZM41.1059 13.972C41.1059 12.5787 40.8653 11.3627 40.3839 10.324C39.9026 9.26 39.2059 8.43667 38.2939 7.854C37.3819 7.27133 36.2926 6.98 35.0259 6.98H32.0619V21.04H35.0259C36.3179 21.04 37.4073 20.736 38.2939 20.128C39.2059 19.52 39.9026 18.684 40.3839 17.62C40.8653 16.5307 41.1059 15.3147 41.1059 13.972ZM56.7952 0.519999L61.6212 11.54L66.5612 0.519999H74.6172L65.3072 18.57V27.5H57.9352V18.494L48.7772 0.519999H56.7952ZM88.1876 27.728C86.1356 27.728 84.2736 27.348 82.6016 26.588C80.9296 25.8027 79.4856 24.764 78.2696 23.472C77.079 22.1547 76.1543 20.6853 75.4956 19.064C74.8623 17.4173 74.5456 15.72 74.5456 13.972C74.5456 12.1733 74.8876 10.4633 75.5716 8.842C76.2556 7.22067 77.2056 5.77667 78.4216 4.51C79.663 3.218 81.1196 2.20467 82.7916 1.47C84.489 0.735331 86.3383 0.367998 88.3396 0.367998C90.3916 0.367998 92.2536 0.760665 93.9256 1.546C95.5976 2.306 97.029 3.34467 98.2196 4.662C99.4103 5.97933 100.322 7.46133 100.956 9.108C101.614 10.7293 101.944 12.4013 101.944 14.124C101.944 15.8973 101.602 17.5947 100.918 19.216C100.259 20.8373 99.309 22.294 98.0676 23.586C96.8516 24.8527 95.4076 25.866 93.7356 26.626C92.0636 27.3607 90.2143 27.728 88.1876 27.728ZM82.0696 14.048C82.0696 14.96 82.1963 15.8467 82.4496 16.708C82.703 17.544 83.083 18.304 83.5896 18.988C84.0963 19.6467 84.7296 20.1787 85.4896 20.584C86.275 20.964 87.1996 21.154 88.2636 21.154C89.3276 21.154 90.2523 20.9513 91.0376 20.546C91.823 20.1407 92.4563 19.596 92.9376 18.912C93.4443 18.2027 93.8116 17.43 94.0396 16.594C94.293 15.7327 94.4196 14.8587 94.4196 13.972C94.4196 13.06 94.293 12.186 94.0396 11.35C93.7863 10.514 93.4063 9.76667 92.8996 9.108C92.393 8.424 91.747 7.892 90.9616 7.512C90.1763 7.132 89.2643 6.942 88.2256 6.942C87.1616 6.942 86.237 7.14467 85.4516 7.55C84.6916 7.95533 84.0583 8.5 83.5516 9.184C83.045 9.84267 82.665 10.6027 82.4116 11.464C82.1836 12.3 82.0696 13.1613 82.0696 14.048ZM106.224 27.5V0.519999H116.598C119.588 0.519999 122.083 1.128 124.084 2.344C126.111 3.53467 127.631 5.156 128.644 7.208C129.683 9.23467 130.202 11.4893 130.202 13.972C130.202 16.708 129.632 19.0893 128.492 21.116C127.378 23.1427 125.794 24.7133 123.742 25.828C121.716 26.9427 119.334 27.5 116.598 27.5H106.224ZM122.678 13.972C122.678 12.5787 122.438 11.3627 121.956 10.324C121.475 9.26 120.778 8.43667 119.866 7.854C118.954 7.27133 117.865 6.98 116.598 6.98H113.634V21.04H116.598C117.89 21.04 118.98 20.736 119.866 20.128C120.778 19.52 121.475 18.684 121.956 17.62C122.438 16.5307 122.678 15.3147 122.678 13.972ZM139.684 0.519999H147.968L156.556 27.5H149.032L147.398 22.218H140.216L138.62 27.5H131.058L139.684 0.519999ZM146.22 17.278L143.826 7.778L141.318 17.278H146.22Z" fill="url(#paint0_linear_1_1277)"/>
<defs>
<linearGradient id="paint0_linear_1_1277" x1="1.88571" y1="-0.250008" x2="152.848" y2="6.39219" gradientUnits="userSpaceOnUse">
<stop offset="0.421369" stop-color="#0096FF"/>
<stop offset="0.966978" stop-color="#0048FF"/>
</linearGradient>
</defs>
</svg>

<svg xmlns="http://www.w3.org/2000/svg" width="157" height="28" fill="none"><path fill="url(#a)" d="M20.066 21.04v6.46H.838V.52h18.886v6.46H8.248v3.8h9.804v6.004H8.248v4.256h11.818Zm4.586 6.46V.52h10.374c2.99 0 5.485.608 7.486 1.824 2.027 1.19 3.547 2.812 4.56 4.864 1.039 2.027 1.558 4.281 1.558 6.764 0 2.736-.57 5.117-1.71 7.144-1.115 2.027-2.698 3.597-4.75 4.712-2.027 1.115-4.408 1.672-7.144 1.672H24.652Zm16.454-13.528c0-1.393-.24-2.61-.722-3.648-.481-1.064-1.178-1.887-2.09-2.47-.912-.583-2.001-.874-3.268-.874h-2.964v14.06h2.964c1.292 0 2.381-.304 3.268-.912.912-.608 1.609-1.444 2.09-2.508.481-1.09.722-2.305.722-3.648ZM56.796.52l4.825 11.02L66.561.52h8.056l-9.31 18.05v8.93h-7.372v-9.006L48.777.52h8.018Zm31.392 27.208c-2.052 0-3.914-.38-5.586-1.14a14.133 14.133 0 0 1-4.332-3.116 14.887 14.887 0 0 1-2.774-4.408 14.07 14.07 0 0 1-.95-5.092c0-1.799.342-3.509 1.026-5.13a14.138 14.138 0 0 1 2.85-4.332 13.56 13.56 0 0 1 4.37-3.04C84.489.735 86.338.368 88.34.368c2.052 0 3.914.393 5.586 1.178a12.923 12.923 0 0 1 4.294 3.116 14.169 14.169 0 0 1 2.736 4.446c.658 1.621.988 3.293.988 5.016 0 1.773-.342 3.47-1.026 5.092a13.714 13.714 0 0 1-2.85 4.37c-1.216 1.267-2.66 2.28-4.332 3.04-1.672.735-3.522 1.102-5.548 1.102Zm-6.118-13.68c0 .912.126 1.799.38 2.66a7.411 7.411 0 0 0 1.14 2.28 5.816 5.816 0 0 0 1.9 1.596c.785.38 1.71.57 2.774.57s1.988-.203 2.774-.608a5.186 5.186 0 0 0 1.9-1.634 7.23 7.23 0 0 0 1.102-2.318 9.244 9.244 0 0 0 0-5.244 6.942 6.942 0 0 0-1.14-2.242 5.178 5.178 0 0 0-1.938-1.596c-.786-.38-1.698-.57-2.736-.57-1.064 0-1.989.203-2.774.608-.76.405-1.394.95-1.9 1.634a6.888 6.888 0 0 0-1.14 2.28 9.776 9.776 0 0 0-.342 2.584ZM106.224 27.5V.52h10.374c2.99 0 5.485.608 7.486 1.824 2.027 1.19 3.547 2.812 4.56 4.864 1.039 2.027 1.558 4.281 1.558 6.764 0 2.736-.57 5.117-1.71 7.144-1.114 2.027-2.698 3.597-4.75 4.712-2.026 1.115-4.408 1.672-7.144 1.672h-10.374Zm16.454-13.528c0-1.393-.24-2.61-.722-3.648-.481-1.064-1.178-1.887-2.09-2.47-.912-.583-2.001-.874-3.268-.874h-2.964v14.06h2.964c1.292 0 2.382-.304 3.268-.912.912-.608 1.609-1.444 2.09-2.508.482-1.09.722-2.305.722-3.648ZM139.684.52h8.284l8.588 26.98h-7.524l-1.634-5.282h-7.182L138.62 27.5h-7.562L139.684.52Zm6.536 16.758-2.394-9.5-2.508 9.5h4.902Z"/><defs><linearGradient id="a" x1="1.886" x2="152.848" y1="-.25" y2="6.392" gradientUnits="userSpaceOnUse"><stop offset=".421" stop-color="#0096FF"/><stop offset=".967" stop-color="#0048FF"/></linearGradient></defs></svg>
